X:2116
T:Ga Gr\`eine
T:The Sunbeam
O:england
B:Joyce, P. W.; "Old Irish Folk Music and Songs"
R:song air
L:1/8
M:C
K:F
(3cde|f2 ef d2 cA|G2 GF G2 A2|D2 FG ABGA|F4 F2:|G2|
Acde f2 ef|d>edc A2 G2|Acde fgfe|d3 e c2 ((3cde)|
f2 ef d2 cA|G2 GF G2 AF|D2 FG ABGA|F4 F2||


